src/actions/32/mail-attachment.svg

<svg xmlns="http://www.w3.org/2000/svg" viewBox="0 0 32 32">
  <defs id="defs3051">
    <style type="text/css" id="current-color-scheme">
      .ColorScheme-Text {
        color:#2e3440;
      }
      </style>
  </defs>
 <path 
     style="fill:currentColor;fill-opacity:1;stroke:none" 
     d="M 2 5 L 2 24.683594 L 2 27 L 19 27 L 19 26 L 3 26 L 3 25.111328 L 3.4296875 24.683594 L 12.785156 15.541016 L 16 18.683594 L 19.214844 15.541016 L 21 17.285156 L 21 15.888672 L 19.929688 14.841797 L 28.976562 6 L 29 6 L 29 14 L 30 14 L 30 5 L 2 5 z M 3 6 L 3.0234375 6 L 12.070312 14.841797 L 3 23.707031 L 3 6 z M 4.453125 6 L 27.546875 6 L 16 17.285156 L 4.453125 6 z M 26.455078 14.916016 C 25.074372 14.916016 23.955087 16.035301 23.955078 17.416016 L 23.955078 23.451172 L 23.957031 23.451172 C 23.976121 24.265079 24.640948 24.91518 25.455078 24.916016 C 26.283505 24.916016 26.955078 24.244443 26.955078 23.416016 L 26.955078 17.916016 L 25.955078 17.916016 L 25.955078 23.416016 C 25.955078 23.692158 25.731221 23.916016 25.455078 23.916016 C 25.178936 23.916016 24.955078 23.692158 24.955078 23.416016 L 24.955078 17.416016 C 24.955078 16.587589 25.626651 15.916016 26.455078 15.916016 C 27.283505 15.916016 27.955078 16.587589 27.955078 17.416016 L 27.955078 23.416016 C 27.955078 24.796728 26.83579 25.916016 25.455078 25.916016 C 24.074366 25.916016 22.955078 24.796728 22.955078 23.416016 L 22.955078 16.916016 L 21.955078 16.916016 L 21.955078 23.416016 C 21.955078 25.349016 23.522078 26.916024 25.455078 26.916016 C 27.388078 26.916024 28.955086 25.349016 28.955078 23.416016 L 28.955078 17.380859 L 28.953125 17.380859 C 28.933995 16.014653 27.82141 14.916948 26.455078 14.916016 z "
     class="ColorScheme-Text"
     />
</svg>

<svg viewBox="0 0 32 32" xmlns="http://www.w3.org/2000/svg">
 <defs>
  <style type="text/css">.ColorScheme-Text {
        color:#2e3440;
      }</style>
 </defs>
 <path class="ColorScheme-Text" d="m2 5v19.684 2.3164h17v-1h-16v-0.88867l0.42969-0.42773 9.3555-9.1426 3.2148 3.1426 3.2148-3.1426 1.7852 1.7441v-1.3965l-1.0703-1.0469 9.0469-8.8418h0.023438v8h1v-9h-28zm1 1h0.023438l9.0469 8.8418-9.0703 8.8652v-17.707zm1.4531 0h23.094l-11.547 11.285-11.547-11.285zm22.002 8.916c-1.3807 0-2.5 1.1193-2.5 2.5v6.0352h0.001953c0.01909 0.81391 0.68392 1.464 1.498 1.4648 0.82843 0 1.5-0.67157 1.5-1.5v-5.5h-1v5.5c0 0.27614-0.22386 0.5-0.5 0.5-0.27614 0-0.5-0.22386-0.5-0.5v-6c0-0.82843 0.67157-1.5 1.5-1.5s1.5 0.67157 1.5 1.5v6c0 1.3807-1.1193 2.5-2.5 2.5s-2.5-1.1193-2.5-2.5v-6.5h-1v6.5c0 1.933 1.567 3.5 3.5 3.5 1.933 8e-6 3.5-1.567 3.5-3.5v-6.0352h-0.001953c-0.01913-1.3662-1.1317-2.4639-2.498-2.4648z" fill="currentColor"/>
</svg>
